X:1
T:Con sirisi cortesi
T:Enrico Radesca di Foggia
T:Source : Secondo Libro delle canzonette, madrigali et arie alla Romana a due voci--- Milano---Herede di S.Tini et F.Lomazzo---1606 Editor : André Vierendeels (15/11/16).
T:Notes : Original clefs C1, F4 Editorial accicentals above the staff "Per cantar e suonar con il chitarone o spinetta" Text by Gabrielle Chiabrera (Maniere, Scherzi e canzonette morali)
T:Con sirisi cortesi
T:©
T:©
T:©
C:Enrico Radesca di Foggia
Z:©
%%score 1 2
L:1/8
Q:1/4=100
M:4/4
K:F
V:1 treble nm="Soprano" snm="S"
V:2 bass nm="MusicXML Part"
V:1
 d2 d2 d2 cc | d2 d2 z2 d2 | d2 d2 c2 c2 | d2 d2 z4 | c2 c2 c2 cB | A2 A2 d2 e2 | f2 ff e4 | %7
w: Con so- ri- si cor-|te- si con|dol- ci sguar- di'ac-|ce- si,|e con at- ti so-|a- vi, bel- la|Ti- gre giu- ra-|
 d2 A2 BABc | d2 cd BABc | B2 AG A4 | G8 :: z4 c4- | c4 B2 A2 | G4 G4 | d4 c2 B2 | A2 G2 A4 | %16
w: vi, che lie- t'io n'ar- de-|re- i, e lie- to mo- ri-|re- * * *|i.|Las|_ so ch'io|mo- ro,|las- so ch'io|mo- ro'et- ar-|
 A2 A2 GABc | A2 AA dcBA | B2 GG cBAG | A2 F2 d4- | d4 f4- | f2 _e2 e4- | e2 d2 d4- | d4 c2 d2 | %24
w: do, ne veg- gio ri- s'o|sguar- do, ch'i- ra- to non m'ac-|co- ri, ch'i- ra- to non m'ac-|co- ri, ne|_ tro-|* v'a miei|_ do- lo-|* ri, pur|
 G2 A2 B2 c2 | c8 | B8 || d2 f_e d2 c2 | d2 B2 d2 f_e | d2 c2 c4 | B8 | c2 c2 c2 cB | A2 A2 d2 e2 | %33
w: om- bra di mer-|ce-|de,|ec- co la bel- la|fe- de, ec- co la|bel- la fe-|de,|che con at- ti so-|a- vi bel- la|
 f2 ff e4 | d4 G2 A2 | B2 BB A4 | G8 :| %37
w: Ti- gre giu- ra-|vi, bel- la|Ti- gre giu- ra-|vi.|
V:2
"^Bass""^BC" G,2 G,2 C,2 C,C, | G,2 G,2 z2 G,2 | G,2 G,2 C,2 C,2 | G,2 G,2 z4 | F,2 F,2 F,2 F,G, | %5
w: Con so- ri- si cor-|te- si con|dol- ci sguar- di'ac-|ce- si,|e con at- ti so-|
"^B" D,2 D,2 D2 C2 | B,2 A,G, A,4 | D,2 D,2 G,F,G,A, | B,2 F,D, G,F,_E,C, | D,8 |"^B" G,,8 :: %11
w: a- vi, bel- la|Ti- gre giu- ra-|vi, che lie- t'io n'ar- de-|re- i, e lie- to mo- ri-|re-|i.|
 F,4 _E,2 D,2 | C,4 C,4 | C,4 B,,2 A,,2 | G,,4 G,,4 | D,8 |"^B" D,2 D,2 G,F,_E,C, | %17
w: Las- so ch'io|mo- ro,|las- so ch'io|mo- ri'et|ar-|do, ne veg- gio ri- s'o|
 D,2 D,2 z2 D,2 | G,F,_E,D, C,2 C,C, |"^(b)" F,E,D,C, B,,2 B,,2 |"^B" B,8 | G,6 A,2 | B,6 G,2 | %23
w: sguar- do, Ch'i-|ra- to non m'ac- cor- ri, ch'i-|ra- to non m'ac- co- ri,|ne|tro- v'a|miei do-|
 F,4 F,2 D,2 | _E,2 F,2 G,2 E,2 | F,8 | B,,8 ||"^B" B,2 B,C B,2 F,2 | B,,2 B,,2 B,2 B,C | %29
w: lo- ri, pur|om- bra di mer-|ce-|de,|ec- co la bel- la|fe- de, ec- co la|
 B,2 _E,2 F,4 | B,,8 | F,2 F,2 F,2 F,G, |"^B" D,2 D,2 D,2 C,2 | B,,2 A,,G,, A,,4 | D,4 G,2 F,2 | %35
w: bel- la fe-|de,|che con at- ti so-|a- vi bel- la|Ti- gre giu- ra-|vi, bel- la|
 _E,2 D,C, D,4 | G,,8 :| %37
w: Ti- gre giu- ra-|vi.|

